EvacVis/dist/d21c05525b9164bb0dd33676d559d407.svg

<svg enable-background="new 0 0 640 512" viewBox="0 0 640 512" xmlns="http://www.w3.org/2000/svg"><path d="m504 352h-367.6c-4.4 0-8 3.6-8 8l-.1 48c0 4.4 3.6 8 8 8h367.7c4.4 0 8-3.6 8-8v-48c0-4.4-3.6-8-8-8zm0 96h-367.9c-4.4 0-8 3.6-8 8l-.1 48c0 4.4 3.6 8 8 8h368c4.4 0 8-3.6 8-8v-48c0-4.4-3.6-8-8-8zm0-192h-367.4c-4.4 0-8 3.6-8 8l-.1 48c0 4.4 3.6 8 8 8h367.5c4.4 0 8-3.6 8-8v-48c0-4.4-3.6-8-8-8zm106.5-139-272.1-113.3c-11.8-4.9-25.1-4.9-36.9 0l-272 113.3c-17.8 7.5-29.5 24.9-29.5 44.3v342.7c0 4.4 3.6 8 8 8h80c4.4 0 8-3.6 8-8v-248c0-17.6 14.6-32 32.6-32h382.8c18 0 32.6 14.4 32.6 32v248c0 4.4 3.6 8 8 8h80c4.4 0 8-3.6 8-8v-342.7c0-19.4-11.7-36.8-29.5-44.3z" fill="#00821e"/></svg>

<?xml version="1.0" encoding="utf-8"?>
<!-- Generator: Adobe Illustrator 24.3.0, SVG Export Plug-In . SVG Version: 6.00 Build 0)  -->
<svg version="1.1" id="Layer_1" focusable="false" xmlns="http://www.w3.org/2000/svg" xmlns:xlink="http://www.w3.org/1999/xlink"
	 x="0px" y="0px" viewBox="0 0 640 512" style="enable-background:new 0 0 640 512;" xml:space="preserve">
<style type="text/css">
	.st0{fill:#00821E;}
</style>
<path class="st0" d="M504,352H136.4c-4.4,0-8,3.6-8,8l-0.1,48c0,4.4,3.6,8,8,8H504c4.4,0,8-3.6,8-8v-48C512,355.6,508.4,352,504,352
	z M504,448H136.1c-4.4,0-8,3.6-8,8l-0.1,48c0,4.4,3.6,8,8,8h368c4.4,0,8-3.6,8-8v-48C512,451.6,508.4,448,504,448z M504,256H136.6
	c-4.4,0-8,3.6-8,8l-0.1,48c0,4.4,3.6,8,8,8H504c4.4,0,8-3.6,8-8v-48C512,259.6,508.4,256,504,256z M610.5,117L338.4,3.7
	c-11.8-4.9-25.1-4.9-36.9,0L29.5,117C11.7,124.5,0,141.9,0,161.3V504c0,4.4,3.6,8,8,8h80c4.4,0,8-3.6,8-8V256
	c0-17.6,14.6-32,32.6-32h382.8c18,0,32.6,14.4,32.6,32v248c0,4.4,3.6,8,8,8h80c4.4,0,8-3.6,8-8V161.3
	C640,141.9,628.3,124.5,610.5,117z"/>
</svg>
